X:55
T:Recovery,The. GS.055
M:2/4
L:1/8
Q:1/4=100
S:George Spencer m/s, Leeds,1831
R:.Country-dance
O:England
A:Leeds
N:The figure 4 over an E is in the MS and is an instruction to use 4th
N:finger not an open string. Those in bars 2 and 10 are written in ink.
N:Those in bars 6 and 14 are possibly in pencil, certainly in a
N:different hand. . â€“ written under note â€“ ? diminuenda.
H:1831
Z:vmp.Cherri Graebe
K:C major
â€œ_See noteâ€.G.c.G.c | (d/2c/2d/2)â€4â€³e/2 d2 | gfdB | ce G2 |!
.G.c.G.c | (d/2c/2d/2â€³4â€³e/2) d2 | (gf).d.B | c4 :||!
gfdB | câ€4â€³e G2 | FF F/2E/2F/2G/2 | (F2E2) |!
(gf).d.B | câ€4â€³e G2 | ff f/2e/2f/2d/2 | c4 |!
ee/2e/2 ee |â€>â€ e3 f | edcB | (A/2B/2c/2d/2 e2) |!
dd/2d/2 dd | d3 e | dcBA | G>A G/2F/2E/2F/2 |!
GcGc | (d/c/d/e/) d2 | (gf).d.B | ceG2 |!
GcGc | (d/c/d/e/)d2 | (gf).d.B| [E4c4] |]

